X:1
T:Title
%%score { ( 1 3 ) | ( 2 4 ) }
L:1/8
Q:1/4=100
M:6/8
K:G
V:1 treble nm="Grand Piano"
V:3 treble 
V:2 bass 
V:4 bass 
V:1
 B2 _B =B2 G | [Ec]2 [^DB] [Ec]2 [DFA] | .d3 z3 | G2 [FA] B3 | B2 _B =B2 G | %5
w: J.~E.~Hall * * *|||||
 [Ec]2 [^DB] [Ec]2 [DA] | [Dd]2 [B,GB] [B,G]2 [EGc] | [DGB]2 [CFA] [B,DG]3 | [B,G]AB [Ec]2 [G,E] | %9
w: ||||
 .[G,DG]2 [DFA] B2 d | d2 e d2 B | G2 B A3 | DEF [B,G]2 A |[M:7/8] B2 d [Ge]3 d | %14
w: |||||
[M:3/4] d2 G [EGc]2 [DGB] | [DGB]2 [CFA] [B,DG]3 |] %16
w: ||
V:2
 [G,D]2 [G,^C] [G,D]2 [G,B,D] | [C,C]2 [C,G,] [C,G,]2 [C,G,] | %2
 [B,,G,]G,,[G,,_B,G] [G,,=B,G]2 [G,G] | [E,B,]2 [D,D][K:treble] [G,DG]3 | %4
 [G,D]2 [G,^C] [G,D]2 [G,B,D] | [C,C]2 [C,G,] [C,G,]2 [C,F,] | [B,,G,]2 G,, E,2 C, | D,2 D, G,,3 | %8
 z C[G,D] [C,G,]2 C, | z DD,[K:treble] [G,DG]2 [G,B,G] | [G,B,G]2 [G,CG] [G,B,G]2 [G,DG] | %11
 [G,B,D]2 [G,D] [D,F,D]3 | F,[G,^C][D,A,C] [G,,G,]2 [D,F,D] | %13
[M:7/8][K:treble] [G,D]2 [G,B,G][K:bass] [C,C]3[K:treble] [G,B,G] | %14
[M:3/4] [G,B,G]2[K:bass] [E,B,] C,2 C, | D,2 D, G,,3 |] %16
V:3
 x6 | x6 | D[B,G]^c d2 B | x6 | x6 | x6 | x6 | x6 | x6 | x6 | x6 | x6 | x6 |[M:7/8] x7 | %14
[M:3/4] x6 | x6 |] %16
V:4
 x6 | x6 | x6 | x3[K:treble] x3 | x6 | x6 | x6 | x6 | .G,3 z3 | .B,,3[K:treble] z3 | x6 | x6 | %12
 .D,3 z3 |[M:7/8][K:treble] x3[K:bass] x3[K:treble] x |[M:3/4] x2[K:bass] x4 | x6 |] %16

